build/images/icons/fb.svg

<svg width="32" height="32" viewBox="0 0 32 32" fill="none" xmlns="http://www.w3.org/2000/svg">
<path d="M27.867 2.6665H4.13366C3.74467 2.6665 3.37162 2.82103 3.09657 3.09608C2.82152 3.37113 2.66699 3.74419 2.66699 4.13317V27.8665C2.66699 28.0591 2.70493 28.2498 2.77864 28.4278C2.85234 28.6057 2.96038 28.7674 3.09657 28.9036C3.23276 29.0398 3.39445 29.1478 3.57239 29.2215C3.75033 29.2952 3.94105 29.3332 4.13366 29.3332H16.907V18.9998H13.4403V14.9998H16.907V11.9998C16.8352 11.2955 16.9183 10.584 17.1506 9.91522C17.3829 9.24643 17.7587 8.63656 18.2516 8.12839C18.7445 7.62021 19.3427 7.22603 20.0041 6.97349C20.6655 6.72095 21.3741 6.61617 22.0803 6.6665C23.1181 6.66012 24.1554 6.71354 25.187 6.8265V10.4265H23.067C21.387 10.4265 21.067 11.2265 21.067 12.3865V14.9598H25.067L24.547 18.9598H21.067V29.3332H27.867C28.0596 29.3332 28.2503 29.2952 28.4283 29.2215C28.6062 29.1478 28.7679 29.0398 28.9041 28.9036C29.0403 28.7674 29.1483 28.6057 29.222 28.4278C29.2957 28.2498 29.3337 28.0591 29.3337 27.8665V4.13317C29.3337 3.94057 29.2957 3.74985 29.222 3.5719C29.1483 3.39396 29.0403 3.23227 28.9041 3.09608C28.7679 2.95989 28.6062 2.85185 28.4283 2.77815C28.2503 2.70444 28.0596 2.6665 27.867 2.6665Z"/>
</svg>

<svg width="32" height="32" fill="none" xmlns="http://www.w3.org/2000/svg"><path d="M27.867 2.667H4.134a1.467 1.467 0 00-1.467 1.466v23.733a1.467 1.467 0 001.467 1.467h12.773V19H13.44v-4h3.467v-3a4.853 4.853 0 015.173-5.333 27.016 27.016 0 013.107.16v3.6h-2.12c-1.68 0-2 .8-2 1.96v2.573h4l-.52 4h-3.48v10.373h6.8a1.467 1.467 0 001.467-1.466V4.132a1.467 1.467 0 00-1.467-1.466z"/></svg>
